X: 1032
T: The Cuckoo's Nest (A14)
N: page A14
N: heptatonic
R: Hornpipe
M: 2/4
L: 1/16
K: G
Q:1/4=60
dc|"G"BABA GBdg|fdcB "D"cedc|"G"BABG FGAB|"D"c2A2 A2dc|
   "G"BABA GBdg|fdcB "D"cedc|"G"BABG FGAd|"G"B2G2G2::
Bc|"G"dBGB dBGB|dcBA G2AB|"D"cAFA cAFA|cBAG F2BA|
"G"GABc d2g2|fdcB "D"cedc|"G"BABG "D"FGAc|"G"B2G2G2::
Bc|"G"dggf gabg|"D"afd^c d2de|=fede ^fgaf|"G"gfdB cedc|
BABA GBdg|fdcB "C"cedc|BABG "D"FGAc|"G"B2G2G2:|
